images/logonew.svg

<svg fill="none" height="30" viewBox="0 0 165 30" width="165" xmlns="http://www.w3.org/2000/svg"><g fill="#fff"><path d="m159.2 23.3301h5.74v5.74h-5.74z"/><path clip-rule="evenodd" d="m59.4151 5.70292h2.888v-4.408h-3.61c-4.257 0-7.0947 2.5769-7.1434 6.50891v9.19617h-.0006v11.7689h5.282v-14.744h5.472v-4.40798h-5.472v-1.406c0-1.52 1.026-2.508 2.584-2.508zm-9.4154 8.32198v-4.40798h-5.4806v-1.406c0-1.52 1.026-2.508 2.584-2.508h2.888v-4.408h-3.61c-4.294 0-7.144 2.622-7.144 6.612v1.71h-3.686v4.40798h3.686v14.744h5.282v-14.744zm-45.59202-4.40798v-6.11692h5.282v6.11692h5.13002v4.88308h-5.13002v6.0869c0 1.862.98802 2.736 2.69802 2.736h2.612v5.7471h-3.334c-4.40802 0-7.25802-2.8091-7.25802-7.2551v-7.3149h-3.686v-4.88308zm31.01842 9.57598c0 5.7-4.218 9.88-10.108 9.88s-10.108-4.18-10.108-9.88 4.218-9.87998 10.108-9.87998 10.108 4.17998 10.108 9.87998zm-14.896 0c0 3.154 1.938 5.32 4.788 5.32s4.788-2.166 4.788-5.32c0-3.192-1.938-5.358-4.788-5.358s-4.788 2.166-4.788 5.358zm60.2792 3.407h-5.2022c-.5155 1.4171-1.8705 2.141-3.8507 2.141-1.8198 0-3.195-.7826-4.0039-2.141h-5.2634c1.2112 3.531 4.3281 6.473 9.2673 6.473 4.5861 0 8.1642-2.5197 9.0529-6.473zm-13.8029-2.229c.0014.0097.0028.0194.0042.029h-5.0224c-.0491-.4147-.0738-.8308-.0738-1.245 0-4.864 2.964-9.84198 9.462-9.84198 6.764 0 9.462 4.97798 9.462 9.34798 0 .722-.0379 1.292-.0759 1.71zm15.1982 2.229c1.2111 3.531 4.3281 6.473 9.2673 6.473 4.5861 0 8.1642-2.5197 9.0531-6.473h-5.2024c-.5155 1.4171-1.8705 2.141-3.8507 2.141-1.8199 0-3.1951-.7826-4.0039-2.141zm4.5215-2.2h-5.0224c-.0492-.4147-.0738-.8308-.0738-1.245 0-4.864 2.964-9.84198 9.462-9.84198 6.764 0 9.4621 4.97798 9.4621 9.34798 0 .722-.038 1.292-.076 1.71h-13.7561c.0014.0097.0028.0194.0042.029zm-11.1697-3.373c-.152-2.128-1.634-3.838-4.18-3.838-2.3939 0-3.8379 1.178-4.2939 3.838zm15.5355-3.838c2.546 0 4.028 1.71 4.18 3.838h-8.474c.456-2.66 1.9-3.838 4.294-3.838zm16.5611 15.58h-5.32v-19.15198h5.32v2.65998c1.064-1.862 3.192-2.96398 5.814-2.96398 4.332 0 7.144 3.11598 7.144 7.52398v11.932h-5.32v-10.754c0-2.318-1.482-3.99-3.686-3.99-2.318 0-3.952 1.786-3.952 4.256zm33.787-19.15198h-5.32v10.48798c0 2.432-1.634 4.256-3.952 4.256-2.166 0-3.686-1.672-3.686-3.99v-10.75398h-5.282v11.93198c0 4.37 2.812 7.524 7.106 7.524 2.622 0 4.75-1.14 5.814-2.964v2.66h5.32zm5.206 0v-6.11692h5.282v6.11692h5.13v4.88308h-5.13v6.0869c0 1.862.988 2.736 2.698 2.736h2.432v5.7471h-3.154c-4.408 0-7.258-2.8091-7.258-7.2551v-7.3149h-3.686v-4.88308z" fill-rule="evenodd"/></g></svg>

<svg width="165" height="30" viewBox="0 0 165 30" fill="none" xmlns="http://www.w3.org/2000/svg">
<rect x="159.2" y="23.3301" width="5.74" height="5.74" fill="white"/>
<path fill-rule="evenodd" clip-rule="evenodd" d="M59.4151 5.70292H62.3031V1.29492H58.6931C54.4361 1.29492 51.5984 3.87182 51.5497 7.80383V17H51.5491V28.7689H56.8311V14.0249H62.3031V9.61692H56.8311V8.21092C56.8311 6.69092 57.8571 5.70292 59.4151 5.70292ZM49.9997 14.0249V9.61692H44.5191V8.21092C44.5191 6.69092 45.5451 5.70292 47.1031 5.70292H49.9911V1.29492H46.3811C42.0871 1.29492 39.2371 3.91692 39.2371 7.90692V9.61692H35.5511V14.0249H39.2371V28.7689H44.5191V14.0249H49.9997ZM4.40768 9.61692V3.5H9.68968V9.61692H14.8197V14.5H9.68968V20.5869C9.68968 22.4489 10.6777 23.3229 12.3877 23.3229H14.9997V29.07H11.6657C7.25768 29.07 4.40768 26.2609 4.40768 21.8149V14.5H0.72168V9.61692H4.40768ZM35.4261 19.1929C35.4261 24.8929 31.2081 29.0729 25.3181 29.0729C19.4281 29.0729 15.2101 24.8929 15.2101 19.1929C15.2101 13.4929 19.4281 9.31292 25.3181 9.31292C31.2081 9.31292 35.4261 13.4929 35.4261 19.1929ZM20.5301 19.1929C20.5301 22.3469 22.4681 24.5129 25.3181 24.5129C28.1681 24.5129 30.1061 22.3469 30.1061 19.1929C30.1061 16.0009 28.1681 13.8349 25.3181 13.8349C22.4681 13.8349 20.5301 16.0009 20.5301 19.1929ZM80.8093 22.5999H75.6071C75.0916 24.017 73.7366 24.7409 71.7564 24.7409C69.9366 24.7409 68.5614 23.9583 67.7525 22.5999H62.4891C63.7003 26.1309 66.8172 29.0729 71.7564 29.0729C76.3425 29.0729 79.9206 26.5532 80.8093 22.5999ZM67.0064 20.3709C67.0078 20.3806 67.0092 20.3903 67.0106 20.3999H61.9882C61.9391 19.9852 61.9144 19.5691 61.9144 19.1549C61.9144 14.2909 64.8784 9.31292 71.3764 9.31292C78.1404 9.31292 80.8384 14.2909 80.8384 18.6609C80.8384 19.3829 80.8005 19.9529 80.7625 20.3709H67.0064ZM82.2046 22.5999C83.4157 26.1309 86.5327 29.0729 91.4719 29.0729C96.058 29.0729 99.6361 26.5532 100.525 22.5999H95.3226C94.8071 24.017 93.4521 24.7409 91.4719 24.7409C89.652 24.7409 88.2768 23.9583 87.468 22.5999H82.2046ZM86.7261 20.3999H81.7037C81.6545 19.9852 81.6299 19.5691 81.6299 19.1549C81.6299 14.2909 84.5939 9.31292 91.0919 9.31292C97.8559 9.31292 100.554 14.2909 100.554 18.6609C100.554 19.3829 100.516 19.9529 100.478 20.3709H86.7219C86.7233 20.3806 86.7247 20.3903 86.7261 20.3999ZM75.5564 17.0269C75.4044 14.8989 73.9224 13.1889 71.3764 13.1889C68.9825 13.1889 67.5385 14.3669 67.0825 17.0269H75.5564ZM91.0919 13.1889C93.6379 13.1889 95.1199 14.8989 95.2719 17.0269H86.7979C87.2539 14.3669 88.6979 13.1889 91.0919 13.1889ZM107.653 28.7689H102.333V9.61692H107.653V12.2769C108.717 10.4149 110.845 9.31292 113.467 9.31292C117.799 9.31292 120.611 12.4289 120.611 16.8369V28.7689H115.291V18.0149C115.291 15.6969 113.809 14.0249 111.605 14.0249C109.287 14.0249 107.653 15.8109 107.653 18.2809V28.7689ZM141.44 9.61692H136.12V20.1049C136.12 22.5369 134.486 24.3609 132.168 24.3609C130.002 24.3609 128.482 22.6889 128.482 20.3709V9.61692H123.2V21.5489C123.2 25.9189 126.012 29.0729 130.306 29.0729C132.928 29.0729 135.056 27.9329 136.12 26.1089V28.7689H141.44V9.61692ZM146.646 9.61692V3.5H151.928V9.61692H157.058V14.5H151.928V20.5869C151.928 22.4489 152.916 23.3229 154.626 23.3229H157.058V29.07H153.904C149.496 29.07 146.646 26.2609 146.646 21.8149V14.5H142.96V9.61692H146.646Z" fill="white"/>
</svg>
